X:105
T:The Dawn
C:Trad.
D:"Cooley", track 16
M:4/4
R:reel
K:G
G,2B,D C2EC|DCB,D GABG|ADDD dDBD|AcBA GEDB,|
G,2B,D (3CB,CEC|DCB,D G2AA|cBcd (3e_eedc|BdAd BGG2|
G,2B,D (3CB,CEC|DCB,D GABG|ADDD dDBD|AcBA GEDB,|
~G,2B,D (3CB,CEC|DCB,D G3AB|cBcd (3e_eedc|BdAd BGGG|
|gfgd ed B/c/d|eaag fded|fdad gdbd|gbdg bdgb|
gfgd (3e_eedB|cBAB cdef|gfgd (3e_eedc|BdAd BGGG|
gfgd ed B/c/d|eaag fedg|fdad fdad|gbdg bdgb|
gfgd (3e_eedB|cBAB cdef|gfgd (3e_eedc|BdAd BGG2|
